src/Assets/icons/iconmonstr-microphone-thin.svg

<svg width="24" height="24" xmlns="http://www.w3.org/2000/svg" fill-rule="evenodd" clip-rule="evenodd"><path d="M16 24h-8v-1h3.5v-3.018c-3.63-.256-6.5-3.287-6.5-6.982v-2h1v2.01c.005 3.307 2.692 5.99 6 5.99 3.311 0 6-2.689 6-6v-2h1v2c0 3.695-2.87 6.726-6.5 6.982v3.018h3.5v1zm-9-19c0-2.76 2.24-5 5-5s5 2.24 5 5v8c0 2.76-2.24 5-5 5s-5-2.24-5-5v-8zm9 0c0-2.208-1.792-4-4-4s-4 1.792-4 4v8c0 2.208 1.792 4 4 4s4-1.792 4-4v-8z"/></svg>

<svg xmlns="http://www.w3.org/2000/svg" width="14.5" height="24.5" viewBox="0 0 14.5 24.5">
  <path id="iconmonstr-microphone-thin" d="M16,24H8V23h3.5V19.982A7,7,0,0,1,5,13V11H6v2.01A6,6,0,0,0,18,13V11h1v2a7,7,0,0,1-6.5,6.982V23H16ZM7,5A5,5,0,1,1,17,5v8A5,5,0,1,1,7,13Zm9,0A4,4,0,1,0,8,5v8a4,4,0,1,0,8,0Z" transform="translate(-4.75 0.25)" fill="#fff" stroke="#fff" stroke-width="0.5" fill-rule="evenodd"/>
</svg>
